storage/app/icons/phosphoricons/bold/download-bold.svg

<svg xmlns="http://www.w3.org/2000/svg" fill="currentColor" viewBox="0 0 256 256"><path d="M71.51 88.49a12 12 0 0 1 17-17L116 99V24a12 12 0 0 1 24 0v75l27.51-27.52a12 12 0 0 1 17 17l-48 48a12 12 0 0 1-17 0ZM224 116h-36a12 12 0 0 0 0 24h32v56H36v-56h32a12 12 0 0 0 0-24H32a20 20 0 0 0-20 20v64a20 20 0 0 0 20 20h192a20 20 0 0 0 20-20v-64a20 20 0 0 0-20-20m-20 52a16 16 0 1 0-16 16 16 16 0 0 0 16-16"/></svg>

<svg xmlns="http://www.w3.org/2000/svg" viewBox="0 0 256 256" fill="currentColor"><path d="M71.51,88.49a12,12,0,0,1,17-17L116,99V24a12,12,0,0,1,24,0V99l27.51-27.52a12,12,0,0,1,17,17l-48,48a12,12,0,0,1-17,0ZM224,116H188a12,12,0,0,0,0,24h32v56H36V140H68a12,12,0,0,0,0-24H32a20,20,0,0,0-20,20v64a20,20,0,0,0,20,20H224a20,20,0,0,0,20-20V136A20,20,0,0,0,224,116Zm-20,52a16,16,0,1,0-16,16A16,16,0,0,0,204,168Z"/></svg>
